!!!OTL: Ich mu&szlig; haben einen Mann (28), S. 109
!!!id: T0151
**kern
*clefG2
*k[f#]
*D:
{16a
=1
8a
16a
16a
16a
16a
=2
8a
16a
16a
16a
16a}
=3
{4b
8a
=4
8f#
8e
8f#
=5
*M2/4
4e}
4r
=6
{8e
8f#
=7
4g
8b
8b
=8
4b
8a
8g
=9
4f#
8a
8b
=10
8a
8f#}
=11
{8f#
8e
=12
4f#
8g
8f#
=13
4e
4d
=14
4g
8b
8ee
=15
4dd}
4r
=16
[4r
16r]
==
*-
!!!minrhy: 16
!!!meters: 3/8 2/4 3/4 ]  ZZ[4
!!!cut: Ich mu&szlig; haben einen Mann (28), S. 109
!!!reg: Luxemburg
!!!trd: Singendes Volk, Esch-Alzette 1937 posth.
!!!rhy1: X  X_XXXX  X_XXXX
!!!rhy2: X__X_  X_X_X_  X__0__
!!!key: T0151  16  D 3/8 2/4 3/4 ]  ZZ[4
!!!mod: SECHSTONSKALA DUR ?]  AMBITUS[9
!!!kad: 523+1
!!!akz: 55_32_4635_324+1_
!!!fot: 'a__b__c__d__
!!!for: 'a__b__c__d__
!!!fok: '-__\__Ma_Va_
!! PHRAS[AUFTAKTIG]
!!!fkt: Liebeslieder
!!!bem1: Boxhorn, hhh Nikolaus Holzheimer, gegen 1900,
!!!bem2: mitgeteilt durch den Lehrer hhh Godefroid
!! THILL, Mathias:
!! PR[29] 2K[3] 2G[8] 3K[10] 3G[6] 4A[5] 4Ü[0] 5A[3] 6K[0] 6G[0]
!! 7K[0] 7G[0] 8A[0] MEHR[0] SI[35] ABS[63] SR[11] SP[24]
!! ST[16] 2k[6] 2g[17] 3k[3] 3g[3] 4d[0] 4ü[0] 5d[3] 6k[3] 6g[0]
!! 7k[0] 7g[0] 8d[0] mehr[0] si[37] dm[-2] sr[24] sp[13]
!! 1F[23] 2F[72] 3F[4] 4F[0] LF[0] 2P[0] 3P[0] 4P[0] TRI[0] DF[3] AB[69]
!! TF[0] U3K[0] U3[0] U4[0] U4Ü[0] U5[9] U6K[0] U6[8] U7K[0] U7[6]
!! N1[25] N2K[0] N2[8] N3K[0] N3[9] N4[9] N4Ü[0] N5[19] N6K[0] N6[6]
!!!n7k: 0] N7[0] O1[0] O2K[0] O2[0] O3K[0] O3[0] HÖ[0
!!!RNB: symbol: &szlig; = sz ligature (UTF-8: ÃŸ)
